X:1
T:Your Saviour Wept, CMD
T:Your Saviour Wept, CMD
T:William Batchelder Bradbury, 1864
T:Public Domain Courtesy of the Cyber Hymnal™
C:William Batchelder Bradbury, 1864
Z:Public Domain
Z:Courtesy of the Cyber Hymnal™
%%score 1 ( 2 3 )
L:1/8
Q:1/4=89
M:3/4
K:C
V:1 treble 
V:2 bass 
V:3 bass 
V:1
 [CE][CE] [CE] | [CE]3 [EG] [FA][EG] | [CE]4 [CE]2 | [B,D]3 [DF] [CE][B,D] | [CE]3 [CE] [CE][CE] | %5
 [CE]3 [EG] [FA][EG] | [CE]4 [CE]2 | [B,D]3 [DG] [DA][DB] | [DG]3 [DF] [DF][DF] | %9
 [DF]3 [DF] [CE][B,D] | [CE]4 [CE]2 | [CE]3 [EA] [Ec][DB] | [CA]3 [EA] [EA][EA] | %13
 [FB]3 [FB] [FA][FB] | [Ec]4 [FA]2 | [EG]3 [CE] [EG][DF] | [CE]3 |] %17
V:2
 [C,G,][C,G,] [C,G,] | [C,G,]3 [C,C] [C,C][C,C] | [C,G,]4 [C,G,]2 | %3
 [G,,G,]3 [G,,G,] [G,,G,][G,,G,] | [C,G,]3 [C,G,] [C,G,][C,G,] | [C,G,]3 [C,C] [C,C][C,G,] | %6
 [C,G,]4 [C,G,]2 | [D,G,]3 [D,B,] [D,C][D,D] | [G,B,]3 [G,,G,B,] [G,,G,B,][G,,G,B,] | %9
 [G,,G,B,]3 [G,,B,] [G,,C][G,,G,] | [C,G,]4 [C,G,]2 | [A,,A,]3 [C,A,] [E,A,][E,^G,] | %12
 [A,,A,]3 [A,C] [A,C][A,C] | [G,D]3 [G,D] [G,D][G,D] | [A,C]4 [F,C]2 | [G,C]3 G, [G,,G,][G,,G,] | %16
 [C,G,]3 |] %17
V:3
 x3 | x6 | x6 | x6 | x6 | x6 | x6 | x6 | x6 | x6 | x6 | x6 | x6 | x6 | x6 | x3 G, x2 | x3 |] %17

